img/logo-dark.svg

<svg xmlns="http://www.w3.org/2000/svg" width="199" height="56" viewBox="0 0 199 56" fill="none">
<path d="M13.547 19.5C13.7046 19.5 13.8322 19.6279 13.8322 19.7857V21.7567C13.8322 21.9145 13.7046 22.0424 13.547 22.0424H8.84123C8.68372 22.0424 8.55603 22.1704 8.55603 22.3282V38.2143C8.55603 38.3721 8.42834 38.5 8.27083 38.5H5.58994C5.43243 38.5 5.30474 38.3721 5.30474 38.2143V22.3282C5.30474 22.1704 5.17705 22.0424 5.01954 22.0424H0.285201C0.127689 22.0424 0 21.9145 0 21.7567V19.7857C0 19.6279 0.127689 19.5 0.285201 19.5H13.547Z" fill="white"/>
<path d="M20.3223 38.5C18.8578 38.5 17.534 38.1837 16.3511 37.551C15.1682 36.9002 14.2387 35.9964 13.5628 34.8394C12.8868 33.6644 12.5488 32.3087 12.5488 30.7722C12.5488 29.2537 12.8962 27.907 13.5909 26.732C14.2857 25.557 15.2339 24.6531 16.4356 24.0205C17.6373 23.3878 18.9798 23.0714 20.4632 23.0714C21.9465 23.0714 23.289 23.3878 24.4907 24.0205C25.6924 24.6531 26.6407 25.557 27.3354 26.732C28.0301 27.907 28.3775 29.2537 28.3775 30.7722C28.3775 32.2906 28.0207 33.6373 27.3072 34.8123C26.5937 35.9873 25.6173 36.9002 24.3781 37.551C23.1576 38.1837 21.8057 38.5 20.3223 38.5ZM20.3223 35.8156C21.1485 35.8156 21.9184 35.6258 22.6319 35.2462C23.3641 34.8666 23.9556 34.2971 24.4062 33.5379C24.8569 32.7787 25.0822 31.8568 25.0822 30.7722C25.0822 29.6875 24.8663 28.7747 24.4344 28.0335C24.0025 27.2743 23.4299 26.7049 22.7164 26.3253C22.0028 25.9456 21.233 25.7558 20.4068 25.7558C19.5807 25.7558 18.8108 25.9456 18.0973 26.3253C17.4026 26.7049 16.8487 27.2743 16.4356 28.0335C16.0225 28.7747 15.816 29.6875 15.816 30.7722C15.816 32.381 16.2384 33.6283 17.0834 34.5141C17.9471 35.3817 19.0268 35.8156 20.3223 35.8156Z" fill="white"/>
<path d="M37.1099 30.815C37.002 30.926 37.0021 31.1029 37.1101 31.2138L43.7336 38.0148C43.9098 38.1957 43.7818 38.5 43.5294 38.5H39.9123C39.8319 38.5 39.7553 38.466 39.7013 38.4065L34.4273 32.5956C34.2519 32.4024 33.9311 32.5266 33.9311 32.7878V38.2143C33.9311 38.3721 33.8034 38.5 33.6459 38.5H30.9443C30.7868 38.5 30.6591 38.3721 30.6591 38.2143V18.6429C30.6591 18.4851 30.7868 18.3571 30.9443 18.3571H33.6459C33.8034 18.3571 33.9311 18.4851 33.9311 18.6429V29.3073C33.9311 29.5704 34.256 29.6937 34.4299 29.4966L40.0157 23.1679C40.0699 23.1066 40.1477 23.0714 40.2294 23.0714H43.9599C44.2122 23.0714 44.3403 23.3754 44.1643 23.5565L37.1099 30.815Z" fill="white"/>
<path d="M59.7496 30.4197C59.7496 30.8832 59.7237 31.3097 59.672 31.699C59.6536 31.8374 59.5341 31.9381 59.3948 31.9381H48.0043C47.8379 31.9381 47.706 32.0805 47.7288 32.2457C47.8739 33.2969 48.3261 34.1525 49.0853 34.8123C49.9173 35.5354 50.9383 35.8969 52.1484 35.8969C53.823 35.8969 55.0245 35.252 55.7529 33.9622C55.8054 33.8692 55.9025 33.8091 56.0092 33.8091H58.9242C59.1201 33.8091 59.2574 34.0024 59.1831 34.184C58.689 35.3898 57.8757 36.3946 56.7432 37.1985C55.5141 38.0662 53.9825 38.5 52.1484 38.5C50.6547 38.5 49.3122 38.1837 48.121 37.551C46.9486 36.9002 46.0221 35.9964 45.3414 34.8394C44.6796 33.6644 44.3487 32.3087 44.3487 30.7722C44.3487 29.2356 44.6702 27.8889 45.3131 26.732C45.9749 25.557 46.8919 24.6531 48.0642 24.0205C49.2555 23.3878 50.6169 23.0714 52.1484 23.0714C53.6233 23.0714 54.9374 23.3787 56.0908 23.9933C57.2442 24.608 58.1424 25.4756 58.7853 26.5964C59.4281 27.6991 59.7496 28.9735 59.7496 30.4197ZM56.0845 29.4435C56.2438 29.4435 56.3733 29.3124 56.3604 29.1533C56.279 28.1486 55.8582 27.3324 55.0981 26.7049C54.2662 26.0179 53.2357 25.6745 52.0066 25.6745C50.891 25.6745 49.9362 26.0179 49.142 26.7049C48.4229 27.3105 47.9674 28.1162 47.7754 29.1221C47.743 29.2915 47.8767 29.4435 48.0489 29.4435H56.0845Z" fill="white"/>
<path d="M69.8969 23.0714C71.1229 23.0714 72.217 23.3194 73.1789 23.8153C74.1598 24.3112 74.9237 25.0459 75.4707 26.0194C76.0177 26.9929 76.2912 28.1684 76.2912 29.5459V38.2143C76.2912 38.3721 76.1636 38.5 76.006 38.5H73.3793C73.2217 38.5 73.094 38.3721 73.094 38.2143V30.0143C73.094 28.6551 72.7451 27.6173 72.0472 26.901C71.3493 26.1663 70.3967 25.799 69.1895 25.799C67.9823 25.799 67.0203 26.1663 66.3036 26.901C65.6056 27.6173 65.2567 28.6551 65.2567 30.0143V38.2143C65.2567 38.3721 65.129 38.5 64.9715 38.5H62.3164C62.1589 38.5 62.0312 38.3721 62.0312 38.2143V23.3571C62.0312 23.1993 62.1589 23.0714 62.3164 23.0714H64.9715C65.129 23.0714 65.2567 23.1993 65.2567 23.3571V24.2759C65.2567 24.542 65.6023 24.6758 65.803 24.5015C66.2247 24.1352 66.7122 23.833 67.2655 23.5949C68.0955 23.2459 68.9726 23.0714 69.8969 23.0714Z" fill="white"/>
<path d="M80.6548 21.4818C80.0654 21.4818 79.5711 21.2909 79.1718 20.9091C78.7725 20.5273 78.5729 20.0545 78.5729 19.4909C78.5729 18.9273 78.7725 18.4545 79.1718 18.0727C79.5711 17.6909 80.0654 17.5 80.6548 17.5C81.2252 17.5 81.7101 17.6909 82.1093 18.0727C82.5086 18.4545 82.7083 18.9273 82.7083 19.4909C82.7083 20.0545 82.5086 20.5273 82.1093 20.9091C81.7101 21.2909 81.2252 21.4818 80.6548 21.4818ZM82.0721 23.0714C82.2304 23.0714 82.3584 23.2006 82.3573 23.3591L82.2539 38.2163C82.2528 38.3733 82.1255 38.5 81.9687 38.5H79.2859C79.1283 38.5 79.0007 38.3721 79.0007 38.2143V23.3571C79.0007 23.1993 79.1283 23.0714 79.2859 23.0714H82.0721Z" fill="white"/>
<path d="M89.2095 35.4428C89.0732 35.6318 89.2079 35.8959 89.4406 35.8959H95.9701C96.1276 35.8959 96.2553 36.0238 96.2553 36.1816V38.2143C96.2553 38.3721 96.1276 38.5 95.9701 38.5H85.2751C85.1176 38.5 84.9899 38.3721 84.9899 38.2143V35.9886C84.9899 35.9284 85.0089 35.8696 85.0442 35.8208L92.0636 26.129C92.2004 25.9401 92.0657 25.6755 91.8327 25.6755H85.2751C85.1176 25.6755 84.9899 25.5476 84.9899 25.3898V23.3571C84.9899 23.1993 85.1176 23.0714 85.2751 23.0714H95.9701C96.1276 23.0714 96.2553 23.1993 96.2553 23.3571V25.5831C96.2553 25.6432 96.2364 25.7017 96.2013 25.7504L89.2095 35.4428Z" fill="white"/>
<path d="M112.797 30.4197C112.797 30.8832 112.771 31.3097 112.719 31.699C112.701 31.8374 112.581 31.9381 112.442 31.9381H101.052C100.885 31.9381 100.753 32.0805 100.776 32.2457C100.921 33.2969 101.373 34.1525 102.133 34.8123C102.965 35.5354 103.986 35.8969 105.196 35.8969C106.87 35.8969 108.072 35.252 108.8 33.9622C108.853 33.8692 108.95 33.8091 109.057 33.8091H111.972C112.167 33.8091 112.305 34.0024 112.23 34.184C111.736 35.3898 110.923 36.3946 109.791 37.1985C108.561 38.0662 107.03 38.5 105.196 38.5C103.702 38.5 102.36 38.1837 101.168 37.551C99.996 36.9002 99.0695 35.9964 98.3888 34.8394C97.727 33.6644 97.3961 32.3087 97.3961 30.7722C97.3961 29.2356 97.7176 27.8889 98.3604 26.732C99.0222 25.557 99.9393 24.6531 101.112 24.0205C102.303 23.3878 103.664 23.0714 105.196 23.0714C106.671 23.0714 107.985 23.3787 109.138 23.9933C110.292 24.608 111.19 25.4756 111.833 26.5964C112.476 27.6991 112.797 28.9735 112.797 30.4197ZM109.132 29.4435C109.291 29.4435 109.421 29.3124 109.408 29.1533C109.326 28.1486 108.906 27.3324 108.146 26.7049C107.314 26.0179 106.283 25.6745 105.054 25.6745C103.938 25.6745 102.984 26.0179 102.189 26.7049C101.47 27.3105 101.015 28.1162 100.823 29.1221C100.79 29.2915 100.924 29.4435 101.096 29.4435H109.132Z" fill="white"/>
<path d="M199 29.5864C199 30.05 198.974 30.4764 198.922 30.8658C198.904 31.0041 198.784 31.1049 198.645 31.1049H187.255C187.088 31.1049 186.956 31.2473 186.979 31.4124C187.124 32.4637 187.576 33.3192 188.336 33.9791C189.168 34.7021 190.189 35.0637 191.399 35.0637C193.073 35.0637 194.275 34.4188 195.003 33.1289C195.056 33.0359 195.153 32.9758 195.26 32.9758H198.175C198.37 32.9758 198.508 33.1692 198.433 33.3507C197.939 34.5565 197.126 35.5614 195.994 36.3652C194.765 37.2329 193.233 37.6667 191.399 37.6667C189.905 37.6667 188.563 37.3504 187.371 36.7177C186.199 36.0669 185.273 35.1631 184.592 34.0062C183.93 32.8312 183.599 31.4754 183.599 29.9389C183.599 28.4024 183.921 27.0556 184.563 25.8987C185.225 24.7237 186.142 23.8199 187.315 23.1872C188.506 22.5545 189.867 22.2382 191.399 22.2382C192.874 22.2382 194.188 22.5455 195.341 23.1601C196.495 23.7747 197.393 24.6424 198.036 25.7632C198.679 26.8658 199 28.1403 199 29.5864ZM195.335 28.6103C195.494 28.6103 195.624 28.4792 195.611 28.32C195.529 27.3153 195.109 26.4992 194.349 25.8716C193.517 25.1847 192.486 24.8412 191.257 24.8412C190.141 24.8412 189.187 25.1847 188.392 25.8716C187.673 26.4773 187.218 27.283 187.026 28.2888C186.993 28.4583 187.127 28.6103 187.299 28.6103H195.335Z" fill="white"/>
<path d="M170.46 32.8131C170.569 33.0107 170.852 33.0103 170.96 32.8124L178.595 18.8155C178.645 18.7238 178.741 18.6667 178.846 18.6667H181.101C181.258 18.6667 181.386 18.7947 181.386 18.9525V37.381C181.386 37.5388 181.258 37.6667 181.101 37.6667H178.42C178.262 37.6667 178.135 37.5388 178.135 37.381V26.7627C178.135 26.4685 177.744 26.3664 177.601 26.6229L171.497 37.5208C171.447 37.611 171.352 37.6667 171.248 37.6667H169.957C169.854 37.6667 169.759 37.6107 169.708 37.5203L163.713 26.7638C163.57 26.5067 163.179 26.6086 163.179 26.9031V37.381C163.179 37.5388 163.051 37.6667 162.894 37.6667H160.213C160.055 37.6667 159.927 37.5388 159.927 37.381V18.9525C159.927 18.7947 160.055 18.6667 160.213 18.6667H162.522C162.626 18.6667 162.722 18.7235 162.772 18.8147L170.46 32.8131Z" fill="white"/>
<path d="M143.308 0L118.787 31.2308L138.09 29.6154L125.221 56L154.712 22.0769L131.656 24.7693L143.308 0Z" fill="white"/>
</svg>

<svg xmlns="http://www.w3.org/2000/svg" width="199" height="56" fill="none"><path fill="#fff" d="M13.547 19.5c.158 0 .285.128.285.286v1.97a.285.285 0 0 1-.285.286H8.841a.286.286 0 0 0-.285.286v15.886a.285.285 0 0 1-.285.286H5.59a.285.285 0 0 1-.285-.286V22.328a.286.286 0 0 0-.285-.286H.285A.285.285 0 0 1 0 21.757v-1.971c0-.158.128-.286.285-.286zM20.322 38.5q-2.197 0-3.97-.949a7.17 7.17 0 0 1-2.79-2.712q-1.013-1.762-1.013-4.067 0-2.277 1.042-4.04a7.07 7.07 0 0 1 2.845-2.712q1.802-.949 4.027-.949t4.028.95a7.07 7.07 0 0 1 2.844 2.711q1.043 1.763 1.043 4.04t-1.07 4.04a7.36 7.36 0 0 1-2.93 2.739q-1.83.95-4.056.949m0-2.684q1.239 0 2.31-.57 1.099-.57 1.774-1.708.675-1.14.676-2.766 0-1.626-.648-2.738-.647-1.14-1.718-1.709a4.84 4.84 0 0 0-2.31-.57q-1.238 0-2.309.57-1.041.57-1.661 1.709-.62 1.111-.62 2.738 0 2.413 1.267 3.742 1.296 1.302 3.24 1.302M37.11 30.815a.286.286 0 0 0 0 .399l6.624 6.8a.286.286 0 0 1-.205.486h-3.617a.28.28 0 0 1-.21-.093l-5.275-5.811a.285.285 0 0 0-.496.192v5.426a.285.285 0 0 1-.285.286h-2.702a.285.285 0 0 1-.285-.286V18.643c0-.158.128-.286.285-.286h2.702c.157 0 .285.128.285.286v10.664c0 .263.325.387.499.19l5.586-6.33a.28.28 0 0 1 .213-.096h3.73c.253 0 .381.304.205.485zM59.75 30.42q0 .695-.078 1.279a.28.28 0 0 1-.277.24h-11.39a.273.273 0 0 0-.276.307q.217 1.576 1.356 2.566 1.248 1.085 3.063 1.085 2.513 0 3.605-1.935a.3.3 0 0 1 .256-.153h2.915c.196 0 .333.193.26.375q-.742 1.808-2.44 3.015-1.844 1.3-4.596 1.301-2.24 0-4.027-.949a7.26 7.26 0 0 1-2.78-2.712q-.992-1.762-.992-4.067 0-2.304.964-4.04a6.8 6.8 0 0 1 2.751-2.712q1.787-.949 4.084-.949 2.213 0 3.943.922a6.65 6.65 0 0 1 2.694 2.603q.965 1.655.965 3.824m-3.666-.977c.16 0 .29-.13.276-.29q-.122-1.506-1.262-2.448-1.248-1.03-3.091-1.03-1.673 0-2.865 1.03-1.08.909-1.367 2.417a.273.273 0 0 0 .274.322zM69.897 23.071q1.839 0 3.282.744a5.35 5.35 0 0 1 2.292 2.204q.82 1.461.82 3.527v8.668a.285.285 0 0 1-.285.286h-2.627a.285.285 0 0 1-.285-.286v-8.2q0-2.039-1.047-3.113-1.046-1.102-2.858-1.102-1.81 0-2.885 1.102-1.047 1.074-1.047 3.113v8.2a.285.285 0 0 1-.285.286h-2.656a.285.285 0 0 1-.285-.286V23.357c0-.158.128-.286.285-.286h2.656c.157 0 .285.128.285.286v.919c0 .266.345.4.546.226q.633-.55 1.463-.907a6.7 6.7 0 0 1 2.63-.524M80.655 21.482q-.885 0-1.483-.573a1.88 1.88 0 0 1-.6-1.418q0-.846.6-1.418.599-.573 1.483-.573.855 0 1.454.573.6.572.6 1.418t-.6 1.418q-.599.573-1.454.573m1.417 1.59c.158 0 .286.129.285.287l-.103 14.857a.285.285 0 0 1-.285.284h-2.683a.285.285 0 0 1-.285-.286V23.357c0-.158.127-.286.285-.286zM89.21 35.443a.286.286 0 0 0 .23.453h6.53c.158 0 .285.128.285.286v2.032a.285.285 0 0 1-.285.286H85.275a.285.285 0 0 1-.285-.286V35.99c0-.06.019-.12.054-.168l7.02-9.692a.286.286 0 0 0-.231-.454h-6.558a.285.285 0 0 1-.285-.285v-2.033c0-.158.128-.286.285-.286H95.97c.158 0 .285.128.285.286v2.226c0 .06-.019.119-.054.167zM112.797 30.42a10 10 0 0 1-.078 1.279.28.28 0 0 1-.277.24h-11.39a.273.273 0 0 0-.276.307q.217 1.576 1.357 2.566 1.248 1.085 3.063 1.085 2.512 0 3.604-1.935a.3.3 0 0 1 .257-.153h2.915c.195 0 .333.193.258.375q-.741 1.808-2.439 3.015-1.844 1.3-4.595 1.301-2.24 0-4.028-.949a7.26 7.26 0 0 1-2.78-2.712q-.992-1.762-.992-4.067 0-2.304.964-4.04a6.8 6.8 0 0 1 2.752-2.712q1.786-.949 4.084-.949 2.212 0 3.942.922a6.64 6.64 0 0 1 2.695 2.603q.964 1.655.964 3.824m-3.665-.977a.27.27 0 0 0 .276-.29q-.123-1.506-1.262-2.448-1.248-1.03-3.092-1.03-1.673 0-2.865 1.03-1.078.909-1.366 2.417a.273.273 0 0 0 .273.322zM199 29.586a10 10 0 0 1-.078 1.28.28.28 0 0 1-.277.239h-11.39a.273.273 0 0 0-.276.307q.217 1.578 1.357 2.567 1.248 1.085 3.063 1.085 2.512 0 3.604-1.935a.3.3 0 0 1 .257-.153h2.915c.195 0 .333.193.258.375q-.741 1.809-2.439 3.014-1.844 1.302-4.595 1.302-2.24 0-4.028-.95a7.26 7.26 0 0 1-2.779-2.71q-.993-1.764-.993-4.068 0-2.305.964-4.04a6.8 6.8 0 0 1 2.752-2.712q1.786-.95 4.084-.949 2.212 0 3.942.922a6.64 6.64 0 0 1 2.695 2.603q.964 1.654.964 3.823m-3.665-.976a.27.27 0 0 0 .276-.29q-.123-1.507-1.262-2.448-1.248-1.03-3.092-1.03-1.673 0-2.865 1.03-1.078.908-1.366 2.417a.273.273 0 0 0 .273.321zM170.46 32.813a.285.285 0 0 0 .5 0l7.635-13.998a.28.28 0 0 1 .251-.148h2.255c.157 0 .285.128.285.285v18.429a.286.286 0 0 1-.285.286h-2.681a.285.285 0 0 1-.285-.286V26.763c0-.295-.391-.397-.534-.14l-6.104 10.898a.28.28 0 0 1-.249.146h-1.291a.29.29 0 0 1-.249-.147l-5.995-10.756c-.143-.257-.534-.155-.534.14V37.38a.286.286 0 0 1-.285.286h-2.681a.286.286 0 0 1-.286-.286V18.953c0-.158.128-.286.286-.286h2.309c.104 0 .2.056.25.148zM143.308 0l-24.521 31.23 19.303-1.615L125.221 56l29.491-33.923-23.056 2.692z"/></svg>
